X:1
T:Title
%%score 1 ( 2 3 4 )
L:1/8
Q:1/4=110
M:4/4
K:D
V:1 treble nm="Grand Piano, Staff 1"
V:2 bass nm="Choir Pad, Aubrey, CM"
V:3 bass 
V:4 bass 
V:1
 A2 A2- A/ z/ F D2 | F2 A2 A2 [F^A]2 | [F^A]2 [FB]2 [FB]2 [Fc]2 | [Fc]2 [Fd]6 | %4
w: By~Charles~John~Vincent,~Jr.~(1852\-1934) * * * *||||
 [F^d]2 [Ee]2- [Ee][E=d] [Ec]2 | [Ec]2 [Ae]2- [Ae][Bd] [GB]2 | [=FB]2 [^FA]2 [DF]2 [CF]2- | %7
w: |||
 [CF][CE] D6- | D2 z2 z4 |] %9
w: ||
V:2
 A,2 A,2- A,/ z/ F, D,2 | F,2 A,2 A,2 [F,C]2 | [E,C]2 [D,B,]2 [D,B,]2 [C,B,]2 | [C,^A,]2 [B,,B,]6 | %4
 [A,B,]2 [G,B,]2- [G,B,][G,B,] A,2 | z4 D2 z2 | z4 z2 A,2- | A, z z2 z4 | z8 |] %9
V:3
 x8 | x8 | x8 | x8 | x8 | [G,A,]2 A,2 z F, [G,D]2 | [^G,D]2 [A,D]2 A,2 A,,2 | z G, [D,F,]6- | %8
 [D,F,]2 z2 z4 |] %9
V:4
 x8 | x8 | x8 | x8 | x8 | z2 .F,4 z2 | x8 | A,,2 z2 z4 | x8 |] %9

